X: 1
T: Garry Shannon's
M: 4/4
L: 1/8
R: reel
K: Dmaj
Bdeg f2ed|Aggf ~g3e|(3Bcd eg ef~f2|1 g2eg fedA:|2 g2eg fedf||
|:a2^ga ~f2~f2|afdf g2fg|a2^ga ~f2~f2|1 g2eg fedf:|2 g2eg fede||
|:fedf fece|dBBA ~c3A|BAGB BAFD|1 EFGE FEDe:|2 EFGE FEDA||
